!!!Melodie: Der du das Los von meinen Tagen
!!!Typ: Lied
**kern	**silbe	**silbe	**silbe	**silbe	**silbe	**silbe	**silbe	**silbe	**silbe	**silbe	**silbe	**silbe
*clefG2	*lang:DE	*lang:DE	*lang:DE	*lang:DE	*lang:DE	*lang:DE	*lang:DE	*lang:DE	*lang:DE	*lang:DE	*lang:DE	*lang:DE
*k[b-,e-,a-]	*	*	*	*	*	*	*	*	*	*	*	*
*M2/2	*	*	*	*	*	*	*	*	*	*	*	*
*met(c)	*	*	*	*	*	*	*	*	*	*	*	*
4g	Dein	.	O	.	Dein	.	Und	.	O	.	O	.
=	=	=	=	=	=	=	=	=	=	=	=	=
4b-	Kö#	.	mäch#	.	Reich	.	wo	.	Herr	.	lass	.
4b-	#nig	.	#t'ger	.	ist	.	du	.	von	.	dein	.
4ee-	kommt	.	Herr#	.	nicht	.	kom#	.	gro#	.	Licht	.
4b-	in	.	#scher	.	von	.	#mest	.	#ßer	.	auf	.
=	=	=	=	=	=	=	=	=	=	=	=	=
2cc	nie#	.	oh#	.	die#	.	her#	.	Huld	.	Er#	.
8Lb-	#der'n	.	#ne	.	#ser	.	#ge#	.	und	.	#den	.
8Ja-	|	.	|	.	|	.	|	.	|	.	|	.
8Lg	Hül#	.	Hee#	.	Er#	.	#zo#	.	Treu#	.	sie#	.
8Jf	|	.	|	.	|	.	|	.	|	.	|	.
4;e-	#len,	.	#re,	.	#den,	.	#gen,	.	#e,	.	#gen,	.
=	=	=	=	=	=	=	=	=	=	=	=	=
4r	%	.	%	.	%	.	%	.	%	.	%	.
4e-	ihn	.	ge#	.	doch	.	da	.	O	.	die	.
4e-	trägt	.	#walt'#	.	al#	.	eb#	.	kom#	.	Macht	.
4g	der	.	#ger	.	#ler	.	#nen	.	#me	.	der	.
=	=	=	=	=	=	=	=	=	=	=	=	=
4f	last#	.	Kämp#	.	Er#	.	sich	.	du	.	Fins#	.
8Lb-	#bar'n	.	#fer	.	#de	.	des	.	auch	.	#ter#	.
8Ja-	|	.	|	.	|	.	|	.	|	.	|	.
4g	Es'#	.	oh#	.	Rei#	.	Mee#	.	jetzt	.	#nis	.
4g	#lin	.	#ne	.	#che	.	#res	.	auf’s	.	er#	.
4f	Fül#	.	Spee#	.	wer#	.	Wo#	.	Neu#	.	#lie#	.
4;f	#len,	.	#re,	.	#den	.	#gen,	.	#e	.	#gen	.
4r	%	.	%	.	%	.	%	.	%	.	%	.
4f	Em#	.	O	.	dem,	.	es	.	zu	.	und	.
=	=	=	=	=	=	=	=	=	=	=	=	=
4b-	#pfang'	.	Frie#	.	das	.	schweigt	.	uns,	.	lösch’	.
4dd	ihn	.	#dens#	.	du	.	der	.	die	.	der	.
4g	froh,	.	#fürst	.	grün#	.	Sturm,	.	wir	.	Zwie#	.
4ee-	Je#	.	von	.	#dest,	.	von	.	sind	.	#tracht	.
=	=	=	=	=	=	=	=	=	=	=	=	=
4dd	#ru#	.	gro#	.	un#	.	dir	.	schwer	.	Glim#	.
4cc	#sa#	.	#ßer	.	#ter#	.	be#	.	ver#	.	#men	.
4;b-	#lem!	.	Macht!	.	#tan.	.	#droht.	.	#stört.	.	aus;	.
=|:	=	=	=	=	=	=	=	=	=	=	=	=
4b-	Trag’	Be#	Es	den	Be#	zieht	Du	des	Not	kommst	dass	ver#
=	=	=	=	=	=	=	=	=	=	=	=	=
4b-	ihm	#streu'	wol#	Weg	#waff#	dei#	kommst,	Le#	ist	zu	wir,	#eint
4a-	ent#	den	#len	zu	#net	#ne	auf	#bens	es,	er#	die	als
4g	#ge#	Pfad	wir	dei#	mit	Schar	den	neu#	dass	#neu#	Völ#	Brü#
4ee-	#gen	mit	der	#nem	des	nach	em#	#en	du	#ern	#ker	#der
=	=	=	=	=	=	=	=	=	=	=	=	=
4dd	Frie#	grü#	Er#	Thro#	Glau#	den	#por#	Bund	selbst	dei#	und	wie#
4ee-	#dens#	#nen	#de	#ne	#bens	vier	#ten	zu	hie#	#nen	die	#der
8Lff	#pal#	Hal#	Her#	sper#	Wor#	Or#	Trif#	stif#	#nie#	Frie#	Thro#	woh#
8Jdd	|	|	|	|	|	|	|	|	|	|	|	|
4;b-	#men,	#men!	#ren	#ren,	#ten	#ten	#ten	#ten,	#den	#den,	#nen,	#nen
=	=	=	=	=	=	=	=	=	=	=	=	=
4r	%	%	%	%	%	%	%	%	%	%	%	%
=:|	=	=	=	=	=	=	=	=	=	=	=	=
4b-	.	So	.	doch	.	der	.	und	.	da#	.	in
4b-	.	ist’s	.	du	.	Welt	.	schlägst	.	#ge#	.	dei#
8Lee-	.	dem	.	ge#	.	hi#	.	in	.	#gen	.	#nes
8Jdd	.	|	.	|	.	|	.	|	.	|	.	|
=	=	=	=	=	=	=	=	=	=	=	=	=
8Lcc	.	Her#	.	#winnst	.	#naus	.	Fes#	.	sich	.	gro#
8Jb-	.	|	.	|	.	|	.	|	.	|	.	|
4a-	.	#ren	.	ihn	.	und	.	#sel	.	die	.	#ßen
4g	.	an#	.	oh#	.	macht	.	Sünd’	.	Welt	.	Va#
4f	.	#ge#	.	#ne	.	dir	.	und	.	em#	.	#ters
=	=	=	=	=	=	=	=	=	=	=	=	=
4;e-	.	#nehm.	.	Schlacht.	.	Bahn.	.	Tod.	.	#pört.	.	Haus!
==	==	==	==	==	==	==	==	==	==	==	==	==
*-	*-	*-	*-	*-	*-	*-	*-	*-	*-	*-	*-	*-
